X: 359
T: Angeline the Baker
C:Stephen Foster
B: jims roots
M:2/4
L:1/8
Q: 1/4=100
K:D
V:1 
(3(fg^g) |: "D"a2 (3faf eBdd | fdeB d2 {f}(a2 | a)baf edg2 | "G"{_B}=B3A B2 (3(fg^g) |
"D"a2 (3faf eBdd | fded BABc |[1 dcdf "G"edBA | "D"FJA2B A2 (3(fg^g) :|
"G"B3d B2(A2|"D"A)FBA d2{=f}^f2- | f2ed BABc | dded "G"fedB | "D"AFAB AFED ||
"D"(3FGA (3ABc d3A |  B2d2- d2 (3dcB | ABAB d2g2 | "G"B3d B2(A2|
"D"A)FBA d2{=f}^f2- | f2ed BABc | dcdf "G"edBd | "D"A3B A2fg ||
V:2 dcdf "G"edBd | "D"A3B A2FA |
V:[P:B Part
"D"AFAB d3A | B2d2 d3-A- | ABAB d2g2 |
% abcbook-tune_id 6298c245f0fba64fe990e294


% abcbook-boost 0
% abcbook-tablature 
% abcbook-transpose 
% abcbook-lastupdated 1654178373192
% abcbook-soundfonts 
% abcbook-repeats 1


